Numix-GalliumOS/22/devices/network-workgroup.svg

<?xml version="1.0" encoding="UTF-8" standalone="no"?>
<svg
   xmlns:dc="http://purl.org/dc/elements/1.1/"
   xmlns:cc="http://creativecommons.org/ns#"
   xmlns:rdf="http://www.w3.org/1999/02/22-rdf-syntax-ns#"
   xmlns:svg="http://www.w3.org/2000/svg"
   xmlns="http://www.w3.org/2000/svg"
   xmlns:sodipodi="http://sodipodi.sourceforge.net/DTD/sodipodi-0.dtd"
   xmlns:inkscape="http://www.inkscape.org/namespaces/inkscape"
   width="22"
   height="22"
   viewBox="0 0 22 22"
   id="svg2963"
   version="1.1"
   inkscape:version="0.91 r"
   sodipodi:docname="samba.svg">
  <metadata
     id="metadata2971">
    <rdf:RDF>
      <cc:Work
         rdf:about="">
        <dc:format>image/svg+xml</dc:format>
        <dc:type
           rdf:resource="http://purl.org/dc/dcmitype/StillImage" />
      </cc:Work>
    </rdf:RDF>
  </metadata>
  <defs
     id="defs2969" />
  <sodipodi:namedview
     pagecolor="#ffffff"
     bordercolor="#666666"
     borderopacity="1"
     objecttolerance="10"
     gridtolerance="10"
     guidetolerance="10"
     inkscape:pageopacity="0"
     inkscape:pageshadow="2"
     inkscape:window-width="640"
     inkscape:window-height="480"
     id="namedview2967" />
  <path
     style="fill:#8e9da8"
     d="M 2.382812 3.628906 C 2.066406 3.6875 1.816406 3.988281 1.816406 4.308594 L 1.816406 17.460938 C 1.820312 17.816406 2.140625 18.136719 2.496094 18.144531 L 19.277344 18.144531 C 19.632812 18.136719 19.953125 17.816406 19.957031 17.460938 L 19.957031 6.179688 C 19.953125 5.824219 19.632812 5.503906 19.277344 5.5 L 12.699219 5.5 L 12.699219 4.308594 C 12.695312 3.953125 12.375 3.632812 12.019531 3.628906 L 2.496094 3.628906 C 2.457031 3.625 2.417969 3.625 2.382812 3.628906 Z M 10.429688 8.210938 L 10.886719 8.210938 C 12.886719 8.210938 14.511719 9.839844 14.511719 11.839844 C 14.511719 13.839844 12.886719 15.46875 10.429688 15.46875 C 8.882812 15.46875 7.257812 13.839844 7.257812 11.839844 C 7.257812 9.839844 8.882812 8.210938 10.429688 8.210938 Z M 10.488281 8.722656 C 10.347656 8.742188 10.199219 8.769531 10.0625 8.804688 L 9.640625 9.515625 C 9.675781 9.519531 9.703125 9.519531 9.75 9.542969 C 9.980469 9.675781 10.085938 9.785156 10.148438 9.800781 C 10.214844 9.816406 10.5 9.417969 10.289062 9.855469 C 10.078125 10.292969 9.996094 10.441406 9.75 10.535156 C 9.738281 10.539062 9.710938 10.53125 9.695312 10.535156 C 9.632812 10.609375 9.542969 10.699219 9.441406 10.792969 C 9.210938 10.996094 9.097656 11.011719 9.097656 11.214844 C 9.097656 11.421875 9.117188 11.597656 8.957031 11.867188 C 8.796875 12.140625 8.664062 12.144531 8.730469 12.351562 C 8.800781 12.554688 8.847656 12.90625 8.730469 12.746094 C 8.617188 12.589844 8.679688 12.28125 8.589844 12.464844 C 8.507812 12.621094 8.320312 12.667969 8.304688 12.832031 C 8.304688 12.855469 8.300781 12.886719 8.304688 12.917969 C 8.367188 13.113281 8.703125 12.847656 8.703125 13.003906 C 8.703125 13.160156 8.40625 13.148438 8.476562 13.285156 C 8.542969 13.421875 8.8125 13.019531 9.042969 13.085938 C 9.273438 13.15625 9.121094 13.195312 9.324219 13.285156 C 9.53125 13.375 9.640625 13.460938 9.640625 13.597656 C 9.640625 13.734375 10.300781 13.683594 10.234375 13.910156 C 10.164062 14.136719 10.101562 14.085938 9.894531 14.335938 C 9.78125 14.472656 9.675781 14.550781 9.609375 14.617188 C 9.703125 14.6875 9.726562 14.710938 9.835938 14.675781 C 9.980469 14.628906 9.808594 14.570312 9.921875 14.503906 C 9.949219 14.488281 9.960938 14.460938 9.980469 14.449219 C 9.996094 14.433594 10 14.429688 10.035156 14.417969 C 10.105469 14.398438 10.230469 14.390625 10.546875 14.390625 C 11.175781 14.390625 11.511719 14.417969 11.511719 14.417969 C 11.511719 14.417969 11.703125 14.417969 11.511719 14.535156 C 11.367188 14.617188 11.089844 14.75 11.054688 14.789062 C 11.070312 14.785156 11.074219 14.800781 11.113281 14.789062 C 11.40625 14.707031 11.820312 14.652344 11.933594 14.617188 C 11.980469 14.605469 12.238281 14.457031 12.445312 14.363281 C 12.453125 14.34375 12.464844 14.324219 12.472656 14.308594 L 12.445312 14.308594 C 12.285156 14.238281 12.144531 13.914062 12.191406 13.824219 C 12.234375 13.730469 12.359375 13.65625 12.472656 13.429688 C 12.589844 13.199219 12.566406 13.386719 12.246094 12.972656 C 11.925781 12.5625 11.753906 13 11.59375 12.863281 C 11.433594 12.722656 11.105469 12.601562 10.96875 12.351562 C 10.832031 12.097656 10.886719 12.285156 10.886719 12.011719 C 10.886719 11.734375 10.875 11.929688 10.941406 11.699219 C 11.011719 11.46875 11.195312 11.433594 11.425781 11.273438 C 11.457031 11.25 11.476562 11.261719 11.511719 11.246094 C 11.457031 11.195312 11.398438 11.074219 11.253906 10.933594 C 11.253906 10.933594 11.394531 10.640625 11.511719 10.59375 C 11.621094 10.550781 11.699219 10.578125 11.851562 10.621094 C 11.855469 10.597656 11.84375 10.59375 11.851562 10.535156 C 11.871094 10.351562 11.792969 10.453125 11.792969 10.335938 C 11.792969 10.222656 11.828125 10.355469 11.992188 10.308594 C 12.152344 10.261719 12.144531 9.921875 12.300781 9.96875 C 12.464844 10.015625 12.476562 9.921875 12.617188 9.714844 C 12.75 9.507812 12.601562 9.609375 12.417969 9.515625 C 12.234375 9.425781 12.40625 9.667969 12.359375 9.828125 C 12.3125 9.988281 12.179688 9.886719 12.019531 9.542969 C 11.859375 9.199219 11.984375 9.335938 12.074219 9.0625 C 12.089844 9.015625 12.109375 8.976562 12.132812 8.949219 C 11.835938 8.820312 11.507812 8.753906 11.167969 8.722656 C 11.167969 8.738281 11.167969 8.734375 11.167969 8.75 C 11.136719 9.058594 10.980469 8.859375 10.914062 8.890625 C 10.851562 8.925781 10.429688 9.523438 10.429688 9.460938 C 10.429688 9.394531 10.488281 9.289062 10.488281 9.289062 C 10.488281 9.289062 10.539062 9.015625 10.488281 8.722656 Z M 11.792969 9.941406 C 11.863281 9.953125 11.929688 10.015625 11.960938 10.082031 C 11.980469 10.121094 11.957031 10.132812 11.933594 10.140625 C 11.933594 10.140625 11.960938 10.230469 11.960938 10.253906 C 11.960938 10.273438 11.902344 10.28125 11.792969 10.253906 C 11.710938 10.230469 11.792969 10.210938 11.851562 10.167969 L 11.734375 10.167969 C 11.695312 10.167969 11.6875 10.148438 11.679688 10.140625 C 11.683594 10.144531 11.667969 10.15625 11.679688 10.167969 C 11.730469 10.230469 11.667969 10.179688 11.59375 10.195312 C 11.519531 10.214844 11.589844 10.148438 11.621094 10.082031 C 11.621094 10.082031 11.671875 10.125 11.679688 10.140625 C 11.691406 10.109375 11.707031 10.046875 11.707031 9.96875 C 11.734375 9.957031 11.769531 9.933594 11.792969 9.941406 Z M 13.523438 10.140625 C 13.40625 10.226562 13.273438 10.414062 13.152344 10.535156 C 12.945312 10.742188 13.265625 10.769531 13.378906 10.792969 C 13.496094 10.8125 13.605469 10.734375 13.832031 10.734375 C 13.832031 10.722656 13.808594 10.71875 13.804688 10.707031 C 13.773438 10.710938 13.757812 10.707031 13.722656 10.707031 C 13.585938 10.707031 13.660156 10.605469 13.691406 10.421875 C 13.644531 10.328125 13.578125 10.226562 13.523438 10.140625 Z M 12.105469 10.566406 C 12.054688 10.550781 11.992188 10.597656 11.90625 10.652344 C 11.96875 10.738281 11.777344 10.980469 11.679688 11.160156 C 11.675781 11.164062 11.65625 11.179688 11.652344 11.1875 C 11.847656 11.15625 12.15625 11.214844 12.839844 11.386719 C 12.839844 11.386719 13.109375 11.296875 13.152344 11.386719 C 13.171875 11.417969 13.246094 11.4375 13.351562 11.441406 C 13.628906 11.335938 13.492188 11.269531 13.492188 11.046875 C 13.492188 10.816406 13.136719 11.046875 13.179688 10.933594 C 13.226562 10.816406 13.144531 10.839844 12.980469 10.675781 C 12.824219 10.519531 12.84375 11.074219 12.726562 10.960938 C 12.613281 10.847656 12.605469 10.9375 12.558594 10.847656 C 12.511719 10.753906 12.359375 10.59375 12.359375 10.59375 C 12.359375 10.59375 12.46875 10.734375 12.445312 10.960938 C 12.421875 11.191406 12.105469 10.992188 12.105469 10.992188 C 12.105469 10.992188 12.15625 10.953125 12.246094 10.933594 C 12.335938 10.910156 12.230469 10.78125 12.160156 10.621094 C 12.144531 10.582031 12.125 10.570312 12.105469 10.566406 Z M 14.03125 11.699219 C 14.007812 11.71875 13.976562 11.742188 13.945312 11.757812 C 13.695312 11.847656 13.492188 12.039062 13.492188 12.039062 C 13.492188 12.039062 13.796875 12.054688 14.003906 12.238281 C 14.019531 12.113281 14.03125 11.96875 14.03125 11.839844 C 14.03125 11.792969 14.035156 11.746094 14.03125 11.699219 Z "
     id="path2965" />
</svg>

<svg xmlns="http://www.w3.org/2000/svg" viewBox="0 0 22 22">
 <path d="m 2.383 3.629 c -0.316 0.059 -0.566 0.359 -0.566 0.68 l 0 13.152 c 0.004 0.355 0.324 0.676 0.68 0.684 l 16.781 0 c 0.355 -0.008 0.676 -0.328 0.68 -0.684 l 0 -11.281 c -0.004 -0.355 -0.324 -0.676 -0.68 -0.68 l -6.578 0 l 0 -1.191 c -0.004 -0.355 -0.324 -0.676 -0.68 -0.68 l -9.523 0 c -0.039 -0.004 -0.078 -0.004 -0.113 0 m 8.05 4.582 l 0.457 0 c 2 0 3.625 1.629 3.625 3.629 c 0 2 -1.625 3.629 -4.082 3.629 c -1.547 0 -3.172 -1.629 -3.172 -3.629 c 0 -2 1.625 -3.629 3.172 -3.629 m 0.059 0.512 c -0.141 0.02 -0.289 0.047 -0.426 0.082 l -0.422 0.711 c 0.035 0.004 0.063 0.004 0.109 0.027 c 0.23 0.133 0.336 0.242 0.398 0.258 c 0.066 0.016 0.352 -0.383 0.141 0.055 c -0.211 0.438 -0.293 0.586 -0.539 0.68 c -0.012 0.004 -0.039 -0.004 -0.055 0 c -0.063 0.074 -0.152 0.164 -0.254 0.258 c -0.23 0.203 -0.344 0.219 -0.344 0.422 c 0 0.207 0.02 0.383 -0.141 0.652 c -0.16 0.273 -0.293 0.277 -0.227 0.484 c 0.07 0.203 0.117 0.555 0 0.395 c -0.113 -0.156 -0.051 -0.465 -0.141 -0.281 c -0.082 0.156 -0.27 0.203 -0.285 0.367 c 0 0.023 -0.004 0.055 0 0.086 c 0.063 0.195 0.398 -0.07 0.398 0.086 c 0 0.156 -0.297 0.145 -0.227 0.281 c 0.066 0.137 0.336 -0.266 0.566 -0.199 c 0.23 0.07 0.078 0.109 0.281 0.199 c 0.207 0.09 0.316 0.176 0.316 0.313 c 0 0.137 0.66 0.086 0.594 0.313 c -0.07 0.227 -0.133 0.176 -0.34 0.426 c -0.113 0.137 -0.219 0.215 -0.285 0.281 c 0.094 0.07 0.117 0.094 0.227 0.059 c 0.145 -0.047 -0.027 -0.105 0.086 -0.172 c 0.027 -0.016 0.039 -0.043 0.059 -0.055 c 0.016 -0.016 0.02 -0.02 0.055 -0.031 c 0.07 -0.02 0.195 -0.027 0.512 -0.027 c 0.629 0 0.965 0.027 0.965 0.027 c 0 0 0.191 0 0 0.117 c -0.145 0.082 -0.422 0.215 -0.457 0.254 c 0.016 -0.004 0.02 0.012 0.059 0 c 0.293 -0.082 0.707 -0.137 0.82 -0.172 c 0.047 -0.012 0.305 -0.16 0.512 -0.254 c 0.008 -0.02 0.02 -0.039 0.027 -0.055 l -0.027 0 c -0.16 -0.07 -0.301 -0.395 -0.254 -0.484 c 0.043 -0.094 0.168 -0.168 0.281 -0.395 c 0.117 -0.23 0.094 -0.043 -0.227 -0.457 c -0.32 -0.41 -0.492 0.027 -0.652 -0.109 c -0.16 -0.141 -0.488 -0.262 -0.625 -0.512 c -0.137 -0.254 -0.082 -0.066 -0.082 -0.34 c 0 -0.277 -0.012 -0.082 0.055 -0.313 c 0.07 -0.23 0.254 -0.266 0.484 -0.426 c 0.031 -0.023 0.051 -0.012 0.086 -0.027 c -0.055 -0.051 -0.113 -0.172 -0.258 -0.313 c 0 0 0.141 -0.293 0.258 -0.34 c 0.109 -0.043 0.188 -0.016 0.34 0.027 c 0.004 -0.023 -0.008 -0.027 0 -0.086 c 0.02 -0.184 -0.059 -0.082 -0.059 -0.199 c 0 -0.113 0.035 0.02 0.199 -0.027 c 0.16 -0.047 0.152 -0.387 0.309 -0.34 c 0.164 0.047 0.176 -0.047 0.316 -0.254 c 0.133 -0.207 -0.016 -0.105 -0.199 -0.199 c -0.184 -0.09 -0.012 0.152 -0.059 0.313 c -0.047 0.16 -0.18 0.059 -0.34 -0.285 c -0.16 -0.344 -0.035 -0.207 0.055 -0.48 c 0.016 -0.047 0.035 -0.086 0.059 -0.113 c -0.297 -0.129 -0.625 -0.195 -0.965 -0.227 c 0 0.016 0 0.012 0 0.027 c -0.031 0.309 -0.188 0.109 -0.254 0.141 c -0.063 0.035 -0.484 0.633 -0.484 0.57 c 0 -0.066 0.059 -0.172 0.059 -0.172 c 0 0 0.051 -0.273 0 -0.566 m 1.305 1.219 c 0.07 0.012 0.137 0.074 0.168 0.141 c 0.02 0.039 -0.004 0.051 -0.027 0.059 c 0 0 0.027 0.09 0.027 0.113 c 0 0.02 -0.059 0.027 -0.168 0 c -0.082 -0.023 0 -0.043 0.059 -0.086 l -0.117 0 c -0.039 0 -0.047 -0.02 -0.055 -0.027 c 0.004 0.004 -0.012 0.016 0 0.027 c 0.051 0.063 -0.012 0.012 -0.086 0.027 c -0.074 0.02 -0.004 -0.047 0.027 -0.113 c 0 0 0.051 0.043 0.059 0.059 c 0.012 -0.031 0.027 -0.094 0.027 -0.172 c 0.027 -0.012 0.063 -0.035 0.086 -0.027 m 1.73 0.199 c -0.117 0.086 -0.25 0.273 -0.371 0.395 c -0.207 0.207 0.113 0.234 0.227 0.258 c 0.117 0.02 0.227 -0.059 0.453 -0.059 c 0 -0.012 -0.023 -0.016 -0.027 -0.027 c -0.031 0.004 -0.047 0 -0.082 0 c -0.137 0 -0.063 -0.102 -0.031 -0.285 c -0.047 -0.094 -0.113 -0.195 -0.168 -0.281 m -1.418 0.426 c -0.051 -0.016 -0.113 0.031 -0.199 0.086 c 0.063 0.086 -0.129 0.328 -0.227 0.508 c -0.004 0.004 -0.023 0.02 -0.027 0.027 c 0.195 -0.031 0.504 0.027 1.188 0.199 c 0 0 0.27 -0.09 0.313 0 c 0.02 0.031 0.094 0.051 0.199 0.055 c 0.277 -0.105 0.141 -0.172 0.141 -0.395 c 0 -0.23 -0.355 0 -0.313 -0.113 c 0.047 -0.117 -0.035 -0.094 -0.199 -0.258 c -0.156 -0.156 -0.137 0.398 -0.254 0.285 c -0.113 -0.113 -0.121 -0.023 -0.168 -0.113 c -0.047 -0.094 -0.199 -0.254 -0.199 -0.254 c 0 0 0.109 0.141 0.086 0.367 c -0.023 0.23 -0.34 0.031 -0.34 0.031 c 0 0 0.051 -0.039 0.141 -0.059 c 0.09 -0.023 -0.016 -0.152 -0.086 -0.313 c -0.016 -0.039 -0.035 -0.051 -0.055 -0.055 m 1.926 1.133 c -0.023 0.02 -0.055 0.043 -0.086 0.059 c -0.25 0.09 -0.453 0.281 -0.453 0.281 c 0 0 0.305 0.016 0.512 0.199 c 0.016 -0.125 0.027 -0.27 0.027 -0.398 c 0 -0.047 0.004 -0.094 0 -0.141 Z" style="fill:#8e9da8"/>
</svg>
